svgs/openweather.svg

<svg xmlns="http://www.w3.org/2000/svg" width="192" height="192" fill="none" stroke="#000" stroke-linecap="round" stroke-linejoin="round" stroke-width="12" viewBox="0 0 192 192"><path d="M 29.7018 110.6128 A 56.4941 56.4941 90 1 1 138.8394 110.6128 M 20.0341 110.6129 H 37 A 10.5725 10.5725 90 0 1 37 131.7577 h 33.8036 A 10.5725 10.5725 90 0 1 70.8038 152.9027 M 47.9537 152.8963 h 89.7903 M 161 110.6128 H 107.6066 A 10.5725 10.5725 90 0 0 107.6066 131.7577 H 102.618844724 A 10.5724 10.5724 90 0 0 102.6188 152.9025 M 102.6188 131.7577 h 6.97 M 129 131.7577 h 9.5 M 158.5341 131.7577 h 9.5"/></svg>

<svg xmlns="http://www.w3.org/2000/svg" width="192" height="192" fill="none" stroke="#000" stroke-linecap="round" stroke-linejoin="round" stroke-width="12" viewBox="0 0 192 192"><path d="M29.702 110.613a56.494 56.494 90 1 1 109.137 0m-118.805 0H37a10.572 10.572 90 0 1 0 21.145h33.804a10.572 10.572 90 0 1 0 21.145m-22.85-.007h89.79M161 110.613h-53.393a10.572 10.572 90 0 0 0 21.145h-4.988a10.572 10.572 90 0 0 0 21.144m0-21.144h6.97m19.411 0h9.5m20.034 0h9.5"/></svg>
